X: 21173
T: Kathleen's Wedding
R: reel
M: 4/4
K: Dmajor
|:FEFA GFEF|D2 D2 DEGA|=cA A2 f3e|dcAF GBAG|
FGAF GFEF|D2 D2 DEGA|=c2 ec dcAB|=cAGE ED D2:|
|:f3 a ge e2|f2 ef dcAG|EG G2 =cAGc|Ad=cA G2 FG|
Adde f3g|afge dcAB|=c2 ec dcAB|=cAGE ED D2:|

